apps/www/public/images/logos/publicity/bolt.svg

<svg width="114" height="60" viewBox="0 0 114 60" fill="none" xmlns="http://www.w3.org/2000/svg">
<path d="M54.241 45.2512C45.6565 45.2512 41.4556 40.3196 41.4556 34.1096C41.4556 27.8995 47.3003 20.0457 55.8848 20.0457C64.4693 20.0457 68.6702 24.9772 68.6702 31.1872C68.6702 37.3973 62.8254 45.2512 54.241 45.2512ZM54.6063 37.3973C57.5286 37.3973 59.5378 34.6575 59.5378 31.7352C59.5378 28.8128 58.0766 28.0822 55.5195 28.0822C52.9624 28.0822 50.588 30.8219 50.588 33.7443C50.588 36.6667 52.0492 37.3973 54.6063 37.3973ZM77.8026 44.7032H68.8528L76.1588 11.4612H85.1086L77.8026 44.5206V44.7032Z" fill="#7E7E7E"/>
<path fill-rule="evenodd" clip-rule="evenodd" d="M27.7608 45.2512C25.0211 45.2512 22.2814 44.3379 20.8202 42.1461L20.2722 44.7032L10.2266 50L11.3225 44.7032L18.6284 11.4612H27.5782L25.0211 23.1507C27.0302 20.9589 29.0394 20.0457 31.5964 20.0457C37.0759 20.0457 40.5462 23.516 40.5462 30.0913C40.5462 36.6667 36.3453 45.2512 27.7608 45.2512ZM31.2311 31.9178C31.2311 35.0228 29.0394 37.3973 26.117 37.3973C23.1946 37.3973 23.012 36.8493 22.0987 35.7534L23.5599 29.726C24.6558 28.6301 25.7517 28.0822 27.2129 28.0822C29.4047 28.0822 31.2311 29.726 31.2311 32.1005V31.9178Z" fill="#7E7E7E"/>
<path d="M94.4135 45.2512C89.2993 45.2512 85.4637 43.4247 85.4637 39.2238C85.4637 35.0228 85.4637 37.9452 85.6463 37.3973L87.6555 28.4475H83.6372L85.4637 20.7763H89.482L90.9431 14.2009L100.989 10L99.8929 14.2009L98.4317 20.7763H103.363L101.537 28.4475H96.6052L95.3267 34.2923V35.3881C95.3267 36.484 96.0573 37.3973 97.5185 37.3973C98.9797 37.3973 98.6144 37.3973 98.797 37.2146V44.3379C97.8838 45.0685 96.24 45.2512 94.5961 45.2512H94.4135Z" fill="#7E7E7E"/>
</svg>

<svg xmlns="http://www.w3.org/2000/svg" width="114" height="60" fill="none" viewBox="0 0 114 60"><path fill="#7e7e7e" d="M54.241 45.251c-8.584 0-12.785-4.931-12.785-11.141S47.3 20.046 55.885 20.046c8.584 0 12.785 4.931 12.785 11.141s-5.845 14.064-14.429 14.064m.365-7.854c2.923 0 4.932-2.74 4.932-5.662s-1.461-3.653-4.018-3.653c-2.558 0-4.932 2.74-4.932 5.662 0 2.923 1.461 3.653 4.018 3.653m23.197 7.306h-8.95l7.306-33.242h8.95l-7.306 33.06z"/><path fill="#7e7e7e" fill-rule="evenodd" d="M27.76 45.251c-2.739 0-5.479-.913-6.94-3.105l-.548 2.557L10.227 50l1.095-5.297 7.306-33.242h8.95l-2.557 11.69c2.01-2.192 4.018-3.105 6.575-3.105 5.48 0 8.95 3.47 8.95 10.045 0 6.576-4.2 15.16-12.785 15.16m3.471-13.333c0 3.105-2.192 5.48-5.114 5.48s-3.105-.549-4.018-1.645l1.46-6.027c1.097-1.096 2.193-1.644 3.654-1.644 2.192 0 4.018 1.644 4.018 4.018z" clip-rule="evenodd"/><path fill="#7e7e7e" d="M94.414 45.251c-5.115 0-8.95-1.826-8.95-6.027s0-1.279.182-1.827l2.01-8.95h-4.019l1.827-7.67h4.018l1.461-6.576L100.99 10l-1.096 4.2-1.461 6.576h4.931l-1.826 7.672h-4.932l-1.278 5.844v1.096c0 1.096.73 2.01 2.192 2.01 1.46 0 1.095 0 1.278-.183v7.123c-.913.73-2.557.913-4.2.913z"/></svg>
